app/images/participant-modal/gear.svg

<svg width="100" height="100" viewBox="0 0 100 100" fill="none" xmlns="http://www.w3.org/2000/svg">
<path d="M50 13.8672C41.4793 13.8672 33.2051 16.8918 26.7016 22.3842C26.0834 22.9061 26.0057 23.8303 26.5273 24.4484C27.0494 25.0666 27.9732 25.1443 28.5916 24.6225C34.5672 19.576 42.1703 16.7969 50 16.7969C68.3082 16.7969 83.2031 31.6918 83.2031 50C83.2031 68.3082 68.3082 83.2031 50 83.2031C31.6918 83.2031 16.7969 68.3082 16.7969 50C16.7969 42.1705 19.576 34.5674 24.6225 28.5916C25.1443 27.9734 25.0664 27.0494 24.4482 26.5273C23.8301 26.0053 22.9059 26.0832 22.384 26.7014C16.8918 33.2051 13.8672 41.4795 13.8672 50C13.8672 69.9236 30.0762 86.1328 50 86.1328C69.9238 86.1328 86.1328 69.9236 86.1328 50C86.1328 30.0764 69.9238 13.8672 50 13.8672Z" fill="#D8F10B"/>
<path d="M96.0484 55.0613C98.375 54.4797 100 52.3982 100 50C100 47.6018 98.375 45.5203 96.0484 44.9387L91.5373 43.8109C91.3387 42.4711 91.074 41.1355 90.7467 39.8203L94.4799 37.0541C96.4068 35.6262 97.1119 33.0814 96.1939 30.8658C95.2762 28.6498 92.9779 27.3488 90.6061 27.702L86.0074 28.3861C85.3096 27.2262 84.5525 26.0951 83.7461 25.0074L86.14 21.0176C87.3738 18.9611 87.0512 16.3402 85.3553 14.6445C83.6596 12.9486 81.0389 12.626 78.982 13.8598L74.9924 16.2539C73.9043 15.4473 72.7734 14.6902 71.6137 13.9924L72.2979 9.39395C72.6512 7.02168 71.35 4.72383 69.1342 3.80605C66.9188 2.88848 64.3736 3.59316 62.9457 5.52012L60.1797 9.25332C58.8639 8.92578 57.5283 8.66113 56.1891 8.4627L55.0613 3.95176C54.4799 1.625 52.3984 0 50 0C47.6016 0 45.5201 1.625 44.9387 3.95176L43.8109 8.46289C42.4719 8.66133 41.1363 8.92598 39.8203 9.25352L37.0543 5.52031C35.6266 3.59336 33.0824 2.88828 30.8658 3.80625C28.6498 4.72402 27.3488 7.02187 27.7022 9.39395L28.3863 13.9926C27.2266 14.6902 26.0957 15.4473 25.0076 16.2541L21.0178 13.8602C18.9609 12.6264 16.3404 12.949 14.6445 14.6449C12.9486 16.3408 12.626 18.9615 13.8598 21.0182L16.2537 25.0078C15.4471 26.0959 14.69 27.227 13.9924 28.3865L9.39395 27.7023C7.02051 27.349 4.72344 28.6504 3.80605 30.866C2.88809 33.0816 3.59297 35.6266 5.51992 37.0545L9.25313 39.8205C8.92559 41.1361 8.66094 42.4719 8.4625 43.8111L3.95137 44.9389C1.625 45.5203 0 47.6018 0 50C0 52.3982 1.625 54.4797 3.95156 55.0613L8.4627 56.1891C8.66113 57.5281 8.92578 58.8641 9.25332 60.1795L5.52012 62.9457C3.59316 64.3736 2.88809 66.9184 3.80605 69.134C4.72383 71.35 7.02227 72.6512 9.39395 72.2979L13.9926 71.6137C14.6904 72.7736 15.4473 73.9045 16.2539 74.9922L13.86 78.982C12.6262 81.0385 12.9488 83.6594 14.6447 85.3551C16.3408 87.051 18.9617 87.3736 21.018 86.1396L25.0078 83.7459C26.0959 84.5527 27.2268 85.3096 28.3865 86.0074L27.7023 90.6059C27.349 92.9781 28.6502 95.276 30.866 96.1937C33.0816 97.1113 35.6266 96.4068 37.0545 94.4797L39.8205 90.7465C41.1359 91.074 42.4719 91.3387 43.8111 91.5371L44.9389 96.048C45.5201 98.375 47.6016 100 50 100C52.3984 100 54.4799 98.375 55.0613 96.0482L56.1891 91.5371C57.5281 91.3387 58.8639 91.074 60.1797 90.7465L62.9457 94.4797C64.3738 96.4068 66.9191 97.1115 69.1342 96.1937C71.3502 95.276 72.6512 92.9781 72.2979 90.6061L71.6137 86.0074C72.7734 85.3096 73.9043 84.5527 74.9924 83.7459L78.9822 86.1396C81.0385 87.3734 83.6594 87.0512 85.3555 85.3551C87.0514 83.6592 87.374 81.0385 86.1402 78.9818L83.7461 74.9922C84.5527 73.9045 85.3096 72.7736 86.0074 71.6137L90.6059 72.2979C92.9797 72.6504 95.2762 71.3498 96.1937 69.1342C97.1117 66.9186 96.4068 64.3736 94.4799 62.9457L90.7467 60.1795C91.0742 58.8645 91.3387 57.5289 91.5373 56.1891L96.0484 55.0613ZM88.2066 61.9438L92.7357 65.2996C93.5805 65.9258 93.8896 67.0414 93.4871 68.0131C93.0848 68.9846 92.0793 69.5557 91.0371 69.4002L85.4592 68.5701C84.8609 68.4818 84.2697 68.7689 83.9707 69.2943C83.04 70.9291 81.9814 72.5105 80.8244 73.9947C80.4521 74.4723 80.4121 75.1299 80.7234 75.649L83.6275 80.4893C84.1688 81.391 84.0272 82.54 83.2834 83.2836C82.5398 84.0273 81.3912 84.1688 80.4891 83.6275L75.6488 80.7234C75.1299 80.4119 74.4725 80.4521 73.9945 80.8242C72.5096 81.9818 70.9281 83.0404 69.2943 83.9705C68.7687 84.2697 68.4811 84.8611 68.5701 85.4592L69.4 91.0373C69.5547 92.0773 68.9844 93.0848 68.0127 93.4871C67.041 93.8895 65.9254 93.5805 65.2994 92.7355L61.9436 88.2064C61.5834 87.7205 60.9627 87.5062 60.3781 87.666C58.5613 88.1654 56.6943 88.5354 54.8289 88.7652C54.2277 88.8395 53.7342 89.276 53.5871 89.8639L52.2186 95.3377C51.9641 96.3578 51.0516 97.0703 50 97.0703C48.9484 97.0703 48.0359 96.3578 47.7811 95.3375L46.4125 89.8639C46.2654 89.2762 45.7719 88.8395 45.1707 88.7652C43.3049 88.5354 41.4379 88.1654 39.6215 87.6662C39.493 87.6309 39.3623 87.6137 39.2332 87.6137C38.7768 87.6137 38.3369 87.8277 38.0563 88.2066L34.7004 92.7357C34.0744 93.5807 32.9584 93.8896 31.9871 93.4873C31.0154 93.085 30.4451 92.0775 30.5998 91.0373L31.4297 85.4594C31.5187 84.8613 31.2311 84.2699 30.7055 83.9707C29.0717 83.0406 27.49 81.982 26.0053 80.8244C25.5277 80.4521 24.8701 80.4121 24.351 80.7236L19.5107 83.6277C18.6094 84.1689 17.4602 84.0273 16.7164 83.2838C15.9727 82.5402 15.8312 81.3912 16.3723 80.4894L19.2764 75.6492C19.5879 75.1299 19.5479 74.4725 19.1754 73.9949C18.0182 72.5106 16.9596 70.9291 16.0291 69.2945C15.7301 68.7691 15.1377 68.4814 14.5406 68.5703L8.9625 69.4004C7.92383 69.5551 6.91504 68.985 6.5125 68.0131C6.10996 67.0416 6.41914 65.926 7.26406 65.2998L11.7932 61.9439C12.2791 61.5838 12.4939 60.9619 12.3336 60.3787C11.8342 58.5623 11.4645 56.6953 11.2344 54.8297C11.1604 54.2283 10.7236 53.7348 10.1359 53.5879L4.6623 52.2195C3.64199 51.9641 2.92969 51.0516 2.92969 50C2.92969 48.9484 3.64199 48.0359 4.6623 47.7809L10.1359 46.4125C10.7236 46.2656 11.1604 45.7719 11.2344 45.1707C11.4645 43.3051 11.8342 41.4381 12.3336 39.6215C12.4939 39.0381 12.2793 38.4164 11.7932 38.0561L7.26406 34.7004C6.41934 34.0742 6.11016 32.9586 6.5127 31.9869C6.91504 31.0154 7.92148 30.4449 8.9627 30.5998L14.5406 31.4299C15.1395 31.5188 15.7301 31.2311 16.0291 30.7057C16.9594 29.0715 18.018 27.49 19.1754 26.0051C19.5477 25.5275 19.5877 24.8701 19.2764 24.3508L16.3723 19.5107C15.8311 18.609 15.9727 17.46 16.7164 16.7164C17.46 15.9729 18.609 15.8314 19.5107 16.3723L24.351 19.2764C24.8701 19.5881 25.5275 19.548 26.0053 19.1756C27.4902 18.018 29.0717 16.9594 30.7057 16.0291C31.2311 15.7301 31.5187 15.1387 31.4297 14.5406L30.5998 8.9627C30.4451 7.92266 31.0154 6.91523 31.9871 6.51289C32.9588 6.11035 34.0742 6.41934 34.7004 7.26445L38.0563 11.7936C38.4164 12.2797 39.0381 12.4939 39.6215 12.334C41.4387 11.8346 43.3057 11.4648 45.1709 11.235C45.7721 11.1607 46.2656 10.7242 46.4127 10.1363L47.7812 4.6625C48.0359 3.64219 48.9484 2.92969 50 2.92969C51.0516 2.92969 51.9641 3.64219 52.2189 4.6625L53.5875 10.1361C53.7346 10.7238 54.2281 11.1605 54.8293 11.2348C56.6945 11.4646 58.5615 11.8344 60.3787 12.3338C60.9619 12.4939 61.5838 12.2795 61.9439 11.7934L65.2998 7.26426C65.9258 6.41953 67.0416 6.11035 68.0131 6.5127C68.9848 6.91504 69.5551 7.92246 69.4004 8.9627L68.5705 14.5406C68.4814 15.1387 68.7691 15.7301 69.2945 16.0291C70.9285 16.9594 72.5102 18.018 73.9949 19.1756C74.4723 19.5479 75.1297 19.5879 75.6492 19.2764L80.4894 16.3723C81.391 15.8314 82.5402 15.9727 83.2838 16.7164C84.0275 17.46 84.1689 18.609 83.6279 19.5107L80.7238 24.351C80.4123 24.8703 80.4523 25.5277 80.8248 26.0053C81.9818 27.4895 83.0404 29.0709 83.9711 30.7059C84.2701 31.2313 84.8623 31.5184 85.4596 31.4301L91.0377 30.6C92.0758 30.4445 93.0852 31.0154 93.4877 31.9873C93.8902 32.9588 93.5811 34.0744 92.7361 34.7004L88.207 38.0563C87.7211 38.4164 87.5062 39.0383 87.6666 39.6217C88.1656 41.4371 88.5353 43.3041 88.7658 45.1711C88.84 45.7723 89.2766 46.2658 89.8643 46.4127L95.3379 47.7811C96.358 48.0359 97.0703 48.9484 97.0703 50C97.0703 51.0516 96.358 51.9641 95.3377 52.2191L89.8641 53.5875C89.2764 53.7344 88.8398 54.2279 88.7656 54.8291C88.5352 56.6961 88.1654 58.5631 87.6664 60.3783C87.5059 60.9619 87.7207 61.5838 88.2066 61.9438Z" fill="#D8F10B"/>
<path d="M42.6758 50C42.6758 54.0387 45.9613 57.3242 50 57.3242C54.0387 57.3242 57.3242 54.0387 57.3242 50C57.3242 45.9613 54.0387 42.6758 50 42.6758C45.9613 42.6758 42.6758 45.9613 42.6758 50ZM54.3945 50C54.3945 52.4232 52.423 54.3945 50 54.3945C47.577 54.3945 45.6055 52.4232 45.6055 50C45.6055 47.5768 47.577 45.6055 50 45.6055C52.423 45.6055 54.3945 47.5768 54.3945 50Z" fill="#D8F10B"/>
<path d="M46.7508 27.3094C45.6295 26.4782 44.2242 26.2329 42.8951 26.6366C35.0863 29.0083 29.0082 35.0864 26.6365 42.8952C26.2328 44.2243 26.4778 45.6295 27.309 46.7508C28.1498 47.885 29.4406 48.5354 30.8508 48.5354H38.6506C39.319 48.5354 39.9026 48.0831 40.0694 47.4358C40.9994 43.8221 43.8221 40.9995 47.4356 40.0694C48.0828 39.9028 48.5354 39.3192 48.5354 38.6508V30.8512C48.5352 29.4411 47.8848 28.15 46.7508 27.3094ZM45.6055 37.5668C41.8498 38.8913 38.891 41.8499 37.5666 45.6057H30.8508C30.3781 45.6057 29.9449 45.3872 29.6625 45.0061C29.3897 44.6379 29.3084 44.179 29.4397 43.7467C31.5268 36.8752 36.875 31.5268 43.7465 29.4399C43.882 29.3987 44.0201 29.3786 44.1574 29.3786C44.4576 29.3786 44.7531 29.4756 45.0059 29.6629C45.3867 29.9454 45.6053 30.3786 45.6053 30.851V37.5668H45.6055Z" fill="#D8F10B"/>
<path d="M73.3637 42.8953C70.9916 35.0863 64.9137 29.0082 57.1049 26.6365C55.7754 26.233 54.3705 26.4779 53.2492 27.3094C52.1152 28.15 51.4648 29.441 51.4648 30.851V38.6506C51.4648 39.3189 51.9172 39.9025 52.5647 40.0691C56.1781 40.9992 59.0008 43.8219 59.9309 47.4355C60.0977 48.0828 60.6812 48.5352 61.3496 48.5352H69.1494C70.5596 48.5352 71.8504 47.8848 72.6912 46.7506C73.5223 45.6297 73.7672 44.2242 73.3637 42.8953ZM70.3375 45.0061C70.0551 45.3871 69.6219 45.6057 69.1492 45.6057H62.4334C61.109 41.8498 58.1502 38.8912 54.3945 37.5668V30.851C54.3945 30.3783 54.6131 29.9453 54.9939 29.6629C55.3623 29.3898 55.8211 29.3088 56.2533 29.4398C63.1248 31.527 68.4731 36.8752 70.5604 43.7469C70.6916 44.1789 70.6104 44.6379 70.3375 45.0061Z" fill="#D8F10B"/>
<path d="M26.6363 57.1049C29.0084 64.9139 35.0863 70.992 42.8951 73.3637C43.315 73.4912 43.7423 73.5539 44.1662 73.5539C45.0838 73.5539 45.9839 73.2596 46.7507 72.6908C47.8847 71.8502 48.5351 70.5592 48.5351 69.1492V61.3494C48.5351 60.6811 48.0828 60.0975 47.4353 59.9309C43.8218 59.0008 40.9992 56.1781 40.0691 52.5645C39.9023 51.9172 39.3187 51.4648 38.6504 51.4648H30.8505C29.4404 51.4648 28.1496 52.1152 27.3088 53.2494C26.4777 54.3705 26.2328 55.776 26.6363 57.1049ZM29.6625 54.9941C29.9449 54.6131 30.3781 54.3945 30.8507 54.3945H37.5666C38.891 58.1504 41.8498 61.1088 45.6054 62.4334V69.1492C45.6054 69.6219 45.3869 70.0549 45.006 70.3373C44.6377 70.6104 44.1787 70.6914 43.7466 70.5604C36.8752 68.4732 31.5269 63.125 29.4396 56.2533C29.3084 55.8213 29.3896 55.3623 29.6625 54.9941Z" fill="#D8F10B"/>
<path d="M69.1492 51.4648H61.3494C60.681 51.4648 60.0974 51.9172 59.9306 52.5645C59.0005 56.1781 56.1779 59.0008 52.5644 59.9309C51.9171 60.0975 51.4646 60.6811 51.4646 61.3494V69.1492C51.4646 70.5592 52.115 71.8502 53.249 72.6908C54.0162 73.2596 54.916 73.5539 55.8335 73.5539C56.2572 73.5539 56.6847 73.4912 57.1046 73.3637C64.9134 70.992 70.9916 64.9139 73.3632 57.1051C73.7669 55.776 73.522 54.3707 72.6908 53.2494C71.8501 52.1152 70.5593 51.4648 69.1492 51.4648ZM70.5603 56.2535C68.4732 63.125 63.125 68.4734 56.2535 70.5604C55.8214 70.6916 55.3623 70.6104 54.9941 70.3373C54.6132 70.0549 54.3947 69.6217 54.3947 69.1492V62.4334C58.1503 61.109 61.1091 58.1504 62.4335 54.3945H69.1494C69.622 54.3945 70.0552 54.6131 70.3376 54.9941C70.6103 55.3623 70.6916 55.8213 70.5603 56.2535Z" fill="#D8F10B"/>
</svg>

<svg width="100" height="100" fill="none" xmlns="http://www.w3.org/2000/svg"><path d="M50 13.867a36.153 36.153 0 00-23.298 8.517 1.465 1.465 0 001.89 2.238A33.22 33.22 0 0150 16.797c18.308 0 33.203 14.895 33.203 33.203 0 18.308-14.895 33.203-33.203 33.203-18.308 0-33.203-14.895-33.203-33.203 0-7.83 2.779-15.433 7.825-21.408a1.465 1.465 0 00-2.238-1.89A36.156 36.156 0 0013.867 50c0 19.924 16.21 36.133 36.133 36.133 19.924 0 36.133-16.21 36.133-36.133 0-19.924-16.21-36.133-36.133-36.133z" fill="#D8F10B"/><path d="M96.048 55.061A5.21 5.21 0 00100 50a5.21 5.21 0 00-3.952-5.061l-4.51-1.128a42.128 42.128 0 00-.791-3.99l3.733-2.767a5.21 5.21 0 001.714-6.188 5.21 5.21 0 00-5.588-3.164l-4.599.684a42.274 42.274 0 00-2.26-3.379l2.393-3.99a5.21 5.21 0 00-.785-6.372 5.21 5.21 0 00-6.373-.785l-3.99 2.394a42.33 42.33 0 00-3.378-2.262l.684-4.598a5.21 5.21 0 00-3.164-5.588 5.21 5.21 0 00-6.188 1.714L60.18 9.253a42.074 42.074 0 00-3.99-.79L55.06 3.952A5.21 5.21 0 0050 0a5.21 5.21 0 00-5.061 3.952l-1.128 4.51a42.102 42.102 0 00-3.99.792L37.053 5.52a5.21 5.21 0 00-6.188-1.714 5.209 5.209 0 00-3.164 5.588l.684 4.599a42.223 42.223 0 00-3.378 2.261l-3.99-2.394a5.21 5.21 0 00-6.373.785 5.21 5.21 0 00-.785 6.373l2.394 3.99a42.31 42.31 0 00-2.262 3.379l-4.598-.685a5.208 5.208 0 00-5.588 3.164 5.21 5.21 0 001.714 6.188l3.733 2.767a42.064 42.064 0 00-.79 3.99L3.95 44.94A5.21 5.21 0 000 50a5.21 5.21 0 003.952 5.061l4.51 1.128c.2 1.34.464 2.675.791 3.99L5.52 62.947a5.21 5.21 0 00-1.714 6.188 5.21 5.21 0 005.588 3.164l4.599-.684a42.216 42.216 0 002.26 3.378l-2.393 3.99a5.21 5.21 0 00.785 6.373 5.21 5.21 0 006.373.785l3.99-2.394a42.276 42.276 0 003.379 2.261l-.685 4.599a5.209 5.209 0 003.164 5.588 5.21 5.21 0 006.188-1.714l2.767-3.734c1.315.328 2.65.593 3.99.791l1.128 4.511A5.209 5.209 0 0050 100a5.21 5.21 0 005.061-3.952l1.128-4.51a42.09 42.09 0 003.99-.791l2.767 3.733a5.21 5.21 0 006.188 1.714 5.209 5.209 0 003.164-5.588l-.684-4.599a42.276 42.276 0 003.378-2.261l3.99 2.394a5.21 5.21 0 006.374-.785 5.21 5.21 0 00.784-6.373l-2.394-3.99a42.216 42.216 0 002.261-3.378l4.599.684a5.209 5.209 0 005.588-3.164 5.21 5.21 0 00-1.714-6.188l-3.733-2.767c.327-1.315.592-2.65.79-3.99l4.511-1.128zm-7.841 6.883l4.529 3.356a2.284 2.284 0 01.751 2.713 2.282 2.282 0 01-2.45 1.387l-5.578-.83a1.466 1.466 0 00-1.488.724 39.283 39.283 0 01-3.147 4.7 1.465 1.465 0 00-.1 1.655l2.903 4.84c.542.902.4 2.051-.344 2.795a2.283 2.283 0 01-2.794.343l-4.84-2.904a1.465 1.465 0 00-1.654.101 39.273 39.273 0 01-4.7 3.147c-.526.299-.814.89-.725 1.488l.83 5.578a2.284 2.284 0 01-1.387 2.45 2.284 2.284 0 01-2.714-.751l-3.355-4.53c-.36-.486-.981-.7-1.566-.54-1.817.5-3.684.87-5.55 1.1a1.465 1.465 0 00-1.24 1.098l-1.37 5.474A2.283 2.283 0 0150 97.07a2.284 2.284 0 01-2.219-1.732l-1.368-5.474a1.466 1.466 0 00-1.242-1.099c-1.866-.23-3.733-.6-5.55-1.099a1.466 1.466 0 00-1.565.54l-3.356 4.53a2.284 2.284 0 01-2.713.751 2.284 2.284 0 01-1.387-2.45l.83-5.578a1.465 1.465 0 00-.724-1.488 39.257 39.257 0 01-4.7-3.147 1.465 1.465 0 00-1.655-.1l-4.84 2.904c-.902.54-2.05.4-2.795-.344a2.284 2.284 0 01-.344-2.795l2.904-4.84a1.465 1.465 0 00-.1-1.654 39.259 39.259 0 01-3.147-4.7 1.466 1.466 0 00-1.488-.725l-5.579.83a2.285 2.285 0 01-2.45-1.387 2.284 2.284 0 01.752-2.713l4.53-3.356c.485-.36.7-.982.54-1.565a39.02 39.02 0 01-1.1-5.55 1.464 1.464 0 00-1.098-1.241l-5.474-1.369A2.285 2.285 0 012.93 50c0-1.052.712-1.964 1.732-2.22l5.474-1.367a1.465 1.465 0 001.098-1.242c.23-1.866.6-3.733 1.1-5.55a1.465 1.465 0 00-.54-1.565L7.263 34.7a2.284 2.284 0 01-.751-2.713 2.283 2.283 0 012.45-1.387l5.578.83a1.464 1.464 0 001.488-.724 39.293 39.293 0 013.146-4.7 1.465 1.465 0 00.101-1.655l-2.904-4.84c-.54-.902-.4-2.051.344-2.795a2.284 2.284 0 012.795-.344l4.84 2.904c.52.312 1.177.272 1.654-.1a39.285 39.285 0 014.7-3.147c.526-.299.814-.89.725-1.488l-.83-5.578a2.284 2.284 0 011.387-2.45 2.284 2.284 0 012.713.751l3.356 4.53c.36.486.982.7 1.566.54 1.817-.5 3.684-.87 5.549-1.099a1.465 1.465 0 001.242-1.099l1.368-5.473A2.283 2.283 0 0150 2.93c1.052 0 1.964.712 2.219 1.732l1.368 5.474c.148.588.641 1.025 1.242 1.099 1.865.23 3.733.6 5.55 1.099a1.465 1.465 0 001.565-.54l3.356-4.53a2.284 2.284 0 012.713-.751 2.284 2.284 0 011.387 2.45l-.83 5.578c-.089.598.2 1.19.725 1.488a39.269 39.269 0 014.7 3.147 1.465 1.465 0 001.654.1l4.84-2.904c.902-.54 2.051-.4 2.795.344.743.744.885 1.893.344 2.795l-2.904 4.84a1.465 1.465 0 00.1 1.654 39.269 39.269 0 013.147 4.7c.3.526.891.813 1.489.725l5.578-.83a2.284 2.284 0 012.45 1.387 2.284 2.284 0 01-.752 2.713l-4.529 3.356c-.486.36-.7.982-.54 1.566a39.07 39.07 0 011.099 5.55c.074.6.51 1.094 1.098 1.24l5.474 1.37A2.283 2.283 0 0197.07 50a2.284 2.284 0 01-1.732 2.22l-5.474 1.367a1.465 1.465 0 00-1.098 1.242c-.23 1.867-.6 3.734-1.1 5.55-.16.583.055 1.205.54 1.565z" fill="#D8F10B"/><path d="M42.676 50c0 4.039 3.285 7.324 7.324 7.324S57.324 54.04 57.324 50 54.04 42.676 50 42.676 42.676 45.96 42.676 50zm11.718 0A4.4 4.4 0 0150 54.395 4.4 4.4 0 0145.605 50 4.4 4.4 0 0150 45.605 4.4 4.4 0 0154.395 50zM46.75 27.31a4.313 4.313 0 00-3.855-.673 24.36 24.36 0 00-16.259 16.258 4.312 4.312 0 00.673 3.856 4.37 4.37 0 003.542 1.784h7.8c.668 0 1.252-.452 1.418-1.1a10.244 10.244 0 017.367-7.366c.647-.166 1.1-.75 1.1-1.418v-7.8a4.37 4.37 0 00-1.785-3.542zm-1.145 10.257a13.175 13.175 0 00-8.038 8.039H30.85c-.473 0-.906-.219-1.188-.6a1.41 1.41 0 01-.223-1.26A21.436 21.436 0 0143.746 29.44a1.41 1.41 0 011.26.223c.38.282.6.716.6 1.188v6.716zM73.364 42.895a24.362 24.362 0 00-16.26-16.259 4.312 4.312 0 00-3.855.673 4.37 4.37 0 00-1.784 3.542v7.8c0 .668.452 1.252 1.1 1.418a10.244 10.244 0 017.366 7.366c.167.648.75 1.1 1.419 1.1h7.8a4.37 4.37 0 003.541-1.784 4.312 4.312 0 00.673-3.856zm-3.026 2.111c-.283.381-.716.6-1.189.6h-6.716a13.174 13.174 0 00-8.038-8.04v-6.715c0-.473.218-.906.599-1.188a1.41 1.41 0 011.26-.223A21.437 21.437 0 0170.56 43.747c.132.432.05.89-.222 1.26zM26.636 57.105a24.362 24.362 0 0016.26 16.259 4.324 4.324 0 003.856-.673 4.37 4.37 0 001.783-3.542v-7.8c0-.668-.452-1.252-1.1-1.418a10.244 10.244 0 01-7.366-7.366 1.465 1.465 0 00-1.419-1.1h-7.8c-1.41 0-2.7.65-3.541 1.784a4.313 4.313 0 00-.673 3.856zm3.027-2.11c.282-.382.715-.6 1.188-.6h6.716a13.175 13.175 0 008.038 8.038v6.716c0 .473-.218.906-.599 1.188a1.41 1.41 0 01-1.26.223A21.437 21.437 0 0129.44 56.253a1.41 1.41 0 01.223-1.259zM69.15 51.465h-7.8c-.669 0-1.253.452-1.42 1.1a10.244 10.244 0 01-7.366 7.366c-.647.166-1.1.75-1.1 1.418v7.8c0 1.41.651 2.701 1.785 3.542a4.325 4.325 0 003.856.673 24.36 24.36 0 0016.258-16.259 4.312 4.312 0 00-.672-3.856 4.369 4.369 0 00-3.542-1.784zm1.41 4.788A21.436 21.436 0 0156.254 70.56a1.41 1.41 0 01-1.26-.223c-.38-.282-.6-.715-.6-1.188v-6.716a13.174 13.174 0 008.04-8.038h6.715c.473 0 .906.218 1.189.6.272.367.354.826.222 1.259z" fill="#D8F10B"/></svg>
